X:456
T:Reel 456
M:4/4
K:Gmin
L:1/8
d>c (3BAG F2GA|BcdF Bcdfe>G (3cBc |e>c (3cBc B>G (3AGF |c>F (3FFF AcBc:|c>f (3fff g>f (3fff |c>f (3fff g>g (3gfg |f>f (3fff g>g (3fff |c>F (3FFF AcBc|f>f (3fff g>f (3fff |c>f (3fff g>a (3fed |c>B (3cBc f>G (3GFG |c>F (3FGA B>G (3efg |
